X: 8
T: Dusty Miller, The
Z: birlibirdie
S: https://thesession.org/tunes/28#setting49900
R: slip jig
M: 9/8
L: 1/8
K: Gmaj
|:B2d d2A BAG|E2A A2B cBA|B2d d2A BAG|D2G G2A BAG:|
%
|:B2d e2f gfg|a2A A2B cBA|B2d e2f g2a|g2e d2c BAG:|
%
|:BdB B2A G2A|E2A A2B cBA|BdB B2A G2A|D2G G2A BAG:|
%
|:D3 G2A BAG|E3 A2B cBA|B2d cBA AGF|D2G G2A BAG:||

